X:130
T:Lovely Nancy
R:Waltz
M:3/4
L:1/8
K:G
B>A |G2 G2 G>B | A2 A2 A/2B/2c | B2 g>e d>B | A4 B>A |
G2 G2 d>B | A2 A2 g>e | d>e d>B A>B | G4 :|
|:B>c |dd g>e | d2 d2 B>c | d2 d2 g>B | A4 B>A |
G2 G2 d>B | A2 A2 B>c | d>e d>B A>B | G4 :|
%%vskip 1.5cm
